mimetypes/scalable/application-x-cd-image.svg

<?xml version="1.0" standalone="no"?><!-- Generator: Gravit.io --><svg xmlns="http://www.w3.org/2000/svg" xmlns:xlink="http://www.w3.org/1999/xlink" style="isolation:isolate" viewBox="0 0 256 256" width="256" height="256"><switch><g><g id="application-mimetype"><g opacity="0.2"><path d=" M 78.924321 15.500025 C 43.627596 15.500025 39.829708 19.125398 40.002695 54.49353 L 40.002695 127.500014 L 40.002695 200.506441 C 39.829708 235.874573 43.627596 239.500004 78.924321 239.500004 L 177.081083 239.500004 C 212.377805 239.500004 216.002702 235.875035 216.002702 200.506441 L 216.002702 127.500014 L 216.002702 54.49353 C 216.002702 19.124994 212.377805 15.500025 177.081083 15.500025 L 78.924321 15.500025 Z " id="path1163" fill="none" vector-effect="non-scaling-stroke" stroke-width="4" stroke="rgb(0,0,0)" stroke-linejoin="miter" stroke-linecap="butt" stroke-miterlimit="4"/></g><defs><filter id="89cxsgCWLIicvI2IMA19DbhjHID49PyG" x="-200%" y="-200%" width="400%" height="400%" filterUnits="objectBoundingBox" color-interpolation-filters="sRGB"><feGaussianBlur xmlns="http://www.w3.org/2000/svg" stdDeviation="2.120027"/></filter></defs><g opacity="0.1" filter="url(#89cxsgCWLIicvI2IMA19DbhjHID49PyG)"><path d=" M 78.924315 16.5 C 43.627592 16.5 39.82971 20.125416 40.002699 55.493531 L 40.002699 128.5 L 40.002699 201.50647 C 39.82971 236.874573 43.627592 240.500001 78.924315 240.500001 L 177.081083 240.500001 C 212.377806 240.500001 215.084425 236.863068 216.002699 201.50647 L 216.002699 128.5 L 216.002699 55.493531 C 216.002699 20.124997 212.377806 16.5 177.081083 16.5 L 78.924315 16.5 Z " id="shadow" fill="rgb(0,0,0)"/></g><defs><filter id="j5DLHvUrB04ZRI2uwo5lbwHL8d0f526P" x="-200%" y="-200%" width="400%" height="400%" filterUnits="objectBoundingBox" color-interpolation-filters="sRGB"><feGaussianBlur xmlns="http://www.w3.org/2000/svg" stdDeviation="8.4801079"/></filter></defs><g opacity="0.3" filter="url(#j5DLHvUrB04ZRI2uwo5lbwHL8d0f526P)"><linearGradient id="_lgradient_226" x1="-0.0681490711308741" y1="0.03125" x2="0.9537210324437329" y2="1.0531201035746074" gradientTransform="matrix(176.005396,0,0,224,39.997303,16.5)" gradientUnits="userSpaceOnUse"><stop offset="0%" stop-opacity="0.58823532" style="stop-color:rgb(0,0,0)"/><stop offset="88%" stop-opacity="0" style="stop-color:rgb(0,0,0)"/><stop offset="100%" stop-opacity="1" style="stop-color:rgb(0,0,0)"/></linearGradient><path d=" M 78.924315 16.5 C 43.627592 16.5 39.82971 20.125416 40.002699 55.493531 L 40.002699 128.5 L 40.002699 201.50647 C 39.82971 236.874573 43.627592 240.500001 78.924315 240.500001 L 177.081083 240.500001 C 212.377806 240.500001 216.002699 236.875001 216.002699 201.50647 L 216.002699 128.5 L 216.002699 55.493531 C 216.002699 20.124997 212.377806 16.5 177.081083 16.5 L 78.924315 16.5 Z " id="blur" fill="url(#_lgradient_226)"/></g><path d=" M 78.924321 15.500025 C 43.627596 15.500025 39.829708 19.125398 40.002695 54.49353 L 40.002695 127.500014 L 40.002695 200.506441 C 39.829708 235.874573 43.627596 239.500004 78.924321 239.500004 L 177.081083 239.500004 C 212.377805 239.500004 216.002702 235.875035 216.002702 200.506441 L 216.002702 127.500014 L 216.002702 54.49353 C 216.002702 19.124994 212.377805 15.500025 177.081083 15.500025 L 78.924321 15.500025 Z " id="shape" fill="rgb(77,77,77)"/><g opacity="0.6"><path d=" M 78.924573 15.500025 C 43.627848 15.500025 39.829708 19.126032 40.002695 54.494165 L 40.002695 56.494138 C 39.829708 21.126005 43.627848 17.499998 78.924573 17.499998 L 177.080824 17.499998 C 212.377545 17.499998 216.002702 21.125601 216.002702 56.494138 L 216.002702 54.494165 C 216.002702 19.125571 212.377545 15.500025 177.080824 15.500025 L 78.924573 15.500025 Z " id="highlight" fill="rgb(255,255,255)"/></g><g opacity="0.1"><path d=" M 128.002691 15.500025 L 128.002691 239.500004 L 177.080824 239.500004 C 212.377531 239.500004 215.084421 235.863501 216.002702 200.506787 L 216.002702 127.500014 L 216.002702 54.493184 C 216.002702 19.124648 212.377531 15.500025 177.080824 15.500025 L 128.002691 15.500025 Z " id="right highlight" fill="rgb(255,255,255)"/></g><g opacity="0.2"><path d=" M 156.002703 239.500004 L 216.002702 179.500005 L 216.002702 201.983857 C 215.950394 235.97965 212.200019 239.500004 177.828601 239.500004 L 156.002703 239.500004 Z " id="clip" fill="rgb(255,255,255)"/></g></g><path d=" M 128 74.006753 C 98.164999 74.006753 74 98.19875 74 127.993247 C 74 157.814755 98.164999 181.993247 128 181.993247 C 157.835001 181.993247 182 157.80125 182 127.993247 C 182 98.19875 157.835001 74.006753 128 74.006753 Z  M 128 114.506753 C 134.75 114.506753 141.5 121.256753 141.5 128.006753 C 141.5 136.140502 134.75 141.506753 128 141.506753 C 121.25 141.506753 114.5 134.756753 114.5 128.006753 C 114.5 121.256753 121.25 114.506753 128 114.506753 Z " id="cd" fill="rgb(230,230,230)"/></g><foreignObject requiredExtensions="http://ns.gravit.io/"><gravitDesigner:gravitElementRef xmlns:gravitDesigner="http://ns.gravit.io/" xlink:href="#NFenvkLFhLPHQh1rkms3MBftoi889xaF"/></foreignObject></switch><gravitDesigner:gravitGraphicSource xmlns:gravitDesigner="http://ns.gravit.io/" id="NFenvkLFhLPHQh1rkms3MBftoi889xaF" version="1"><![CDATA[eMKcw41baXPDo0bCksO9KxvDtMOGfsOZwrbCjMO7cMOERAwAw6LCvggSJAHCuB0bwrhvw6IGQU7DuMK/L0jCkcKSKHfDt8KqZzxrS03CiixWZmVmw6V7wpVZUsO/Y8Oxw7fDhcOPwovDmsKNw4PDhcKnw4V/Ln7DvsOlH8OXwoHCuMKtwobDumHCpHbDu2Qew7DCi8KqC8KDw4XDj307woTCnxZ1w5/DjRN+WcOAwq5eGMOrWnTCt8Oqw5/Dpkk/w4wPAsOaUsK+QMKde8KfXSvDokrChW3Cn8K3w5JUSMONHS3DrMKVaMKeIsOMwo8ow6jDgBfDiV8/w73CsmBFwrU0wrbCusOjAy/CqsOifMOXwp3CkcORw6TDjsKBwrpjwoDCksOew6RZcjbCrMKTCMKrwp7Cq8K3w7PClMKLaQXDoRfChsKbwpNuw75Ww5UaBcOjV1XDm2nCvcKvwofCigsLZEJ2A1RMcAdYwr0XwrvCu8KeUDnDvFXDjsKpwoLDrMOVG8OGwqRjOMOcZcOKwoEvGnNkS8KeQzhzwrLDq8OIw7XCocOjw47Cu3lzNWEfKcO5w53Cm2tgNiTCn8OnL8KqeiDCosKHw5HCicOqw6HDoDHCncKnw7XCqVIcwpg9UWFkHMKswqzDtMOmw401MHfDicKrKlzDhcKMw7RBFVVuD2nCkzXDg8KSbAFXFMO6NcKxw4E2biDDqsOLw4wLwpzDvmYVHsKjw7HCi8OkRRUze2LDlA8OegMNwpYtwqN5ZyLDnW0lwpjDj8OPwq5lw6bDh2rCp8KrwrTCjlk3wqvCrsKSw6XDuMOqw6B1IHnCiDEewrdCw6DCnHt1FMOnw7hSw4TClsKAa8OZwpHDq8O1w4DCosOeeghew6XDssKHbSYoLgN3HMKAw7tKXMKpw6jCmj8DasOaw5Z4MSbCg8Kbw4jDrMONwpvCq2Qjwr5uw7M1MMOJQ8OyLQsXVcKwCApAEw13wqZiT8KHSghBwqkbJMOOw7Zqw6LDpsONNTB3w4lff8O9wrRow4PCqMKfw7rDhcOPwofCoSjCrsOvw5zCg8KfVMOtJcOJw6dPw7s2wppfw4BPOE7CohDCjmAYwoAiJMKMwqDCn8KAw7nDu0vDg08YRsKCGEgAOMKBwoPDs8O3wqcfCQx7AkkEw4YwCMOCYMKQw4RnwrUHwrcMbwADQQzCnsOtw7rCn8Kuwq/DqsOFw4/DgBM0wr8uw5xTeMKxw6AOw4PDtMOQK8OPQ2/DoRnCpUXCsXrDucOswqLCo8Kew71YMD/DvHIxDsO4w7UyMsOOWiLCt8Oow4LDnz49C3lVG8KEw63Co8KYd1zDvAw/wpHDly8ceMO+w4LCscOLB8KFfxEZw7rDvjrCrSwWPyPCv1/DpsK3w5nCocO/wppHfFbCpAZnc8KIwrEzw5kkwqzCuwXDpsOwN13Cih3DlsOhakzDrcOFb8KzbBhFw6LDjCXCi8K1bMKqwqFDwrbDu00bTzzCg8K6woEhExMdOyN1An0NWMOcDcO+NgnDtT5pHCnCqmDDhXsew4gDw63DtVA1wqFkw50uT0pNw4HClcKlVkTDnnnCpggTZnVLKVTDuGkww6LCm8OkJcKlKGoZG8OtwpLDoF7Cs8OTw5zCrsKgwppHRsKnEMK6wqPCqxvCq1PCmcOgwqnCoMOjPENww7sBwrrCpRTDjMOiwpFRQlTClcK/VXXDkcO9wprCnUIXdWvDu8K8w58VwqMuwpxxesKbK1rDpsKtAcKywph6ccOdwpDCr3JNTMODwq9wH23DkMKGw7oNUULCpsOlw610WcOtw5E2GGPClD3DrQ0jIcKlwps3VxNGecKkWMOjBsKQa2AYworDisKNwrsqw4vCo8KVwqozw4R5PWTCskTDsXRCwqfCkTnDswrDicOqwqzDoMOsbsOePAfDpiZ5wqXDhsK1ScK/U3XDjk5acMOiwoIVwqPDhBQYwqRnTVDDum1FC0YmI8Khw4PDn8KswqLCoWXDviJ5c8KwMsKwBwfCu8OlacOnwoPCtBnCn3TCn8O3esKywrEtFUfDqcOGw49gWz0Vd2rDhGnDs2DDgMOlw7DDosOgVcOVw7Ehw4bDlVnDpcKWI1zCjMObBlDCu8KRwq/DmCUZQsOmGMOxwoPCuMKSVsOnVznDvGHCm8OLwr1lLcOtMifCsQHDmRXCmHXCkkbChcKBwpstZsK6Ylgswq3CmzdXw4nCn8OIwp9ewrbDuTkwD8OJw6fCjV0+w4nCqcKGwodhwprDh2oRR8OVw4FYwp/Ch2k5MCTDrcKbN2/CngNzT8K+D8KSEMOwwoTDnsKwCUAXw5ZBwrErCX1hw7hHEMKdw5HCjMODAAhAGAhBBAh/w7oRAsKewpArw4IxGAHDkcKZwqvCkFcew6oSN8Kowo5vWQjDvMOjWMOow79iHsOww6luP8KAwpIAworCgsOQwofCmcOnwoHDoG4swrTDriPCg2PDnTw5CGs3O8OoYcOEwqHCrsOHwo/Cu8OQwpRgw7cAw59Zw6jDrsOXw7wyw7TDu0fCn8K8YmjDmcOrw7g8w5zDjks/wpEwwo7DgTB5IXUMB8Ova8KpwqXDiDd8YQnCicKmwoJDJ0plwpfCr3wlXcO5w4kqw6YracOxw5s/w4tiwqnCsUTCl8K8P8KebXHDkkVFVMK9w5bCg8OLOMOow7jDgnTCrMOxwo7CsMKPwrDDmF45w5kbPENSwqnChgrCmVPClsKCwocbwop4BEAoT8K4wrbDuQ4WU8OkZULDmFvCh1xxNcKzw50Mw70SOsKGw7VmFCMiw4jDosKhw7wawovCgVTCq8OiCcK8U1LCjnTDhTQcKz/DmEp2w6wWdcOmw4XDgsK9wpTDugjCi8KJwoAgGStSFcK3w6Zhwp8dDAnDkMOXwqc+cUd7N8KVQnkvDD/DgmLDqsKQAsOEw6DCs8K+wolDJHnCgnfDuVRCw5DDksKIQ8K2wpLCmUbDuw4WE8OBIcOAworDsMOoJHZ0wo46TMO1TcKZwpZtwqVTCMKWwqHCs8OpZsOVM2kxw4dvwrEYw6oPQ8KPOsOSwpFLLMOtOMK1CgwGw7bCoQcbbWLCszHCkMK+w4Ziw4YJwpXCuMOWw4Z9wofDqmFcw4tSSDbCiANRQFjDicOEBgJ9B8KLwonCpzw7T35dwp3DvChnA8Ocw4UPIsK4IsOBwrwpOMOZL8Ouw6fDnl/CjcOFLsKofcOLYcOwwoc5w6zDn01Nwp/CvknClcOKD8O/w7jCvMOoPl/ClkMQFEQgFCURwpQgAMKCw7jDtHkRTcOzJz8CTwBGwoAICcOgIAgDBMKOwoDCl8KPTsKfL34CMAjCocOzw5vDi8OEX2ZVw7VldH7Dr8OPPz/Cv8Kaw7R5McKPVVfCiVk5BMKjMDQbdsKbw750XcOrwqsSLxPDgW/DjMK6w5DDosOnRXsxF8KddwnCv8KQJQLDowQEw4LDhG8vVWJXGcOEwqYqLAQ+w4jCksKXGEsrCy1BDgbCqcKVwoxdcMO4Z8O4GSTCn3AUQGF0wo4RwolBKMKCw51Xc8KMbml1AcKVOcK+woHCgQzCtsOuT8OSWQgkS1TCgMOQbsK3H2XDqMOfN8K7wq1LEHURwqDCiMKdw4Z2QsOzw6vDuMK0wooobcOcF8KjwrzDrcKhe8OVw7DCkWZXw67CixN4wqI3w7zCgRTCpcK1wrLDmUPCncKUR8OkSj3Cu1zDo8KPw7TDosOjw43DrgnCncKpQ2hoC8KVw7DDk8K5woHDi8ORwp7DlGkqAyhdw7IyBn7CrcOZwq0rLUPCpUPCu0/CiFF3UR7DsSTCnsKmRMKjWg3CnTvCl8KtwovCjzfCu8O1GBlHwrHCi1dCwoBUwpM2woElOUA9wo0uw4UNwqzDtmdkw7HDsWYXw6rCqSgJw7fDmsKZwrEjYnvCpCViwpTDncO5O8KXFMKVO8Ouw6HDhcOHwptdw4VHAmYawozDiBRzEsO0wrbDncK+Ww5kEG4tFUxlF1x8wrzDmXVgS8KkDEdUwq0yOSDCsnEkw4UuWUrDmXFjw68qwrXClsK/w5bDrBbCqnPCtH3CiXMtw5jCj8O8w4Fkwq0gdAIJGwHCh8OROmVafMK8w5nDpVwBwq3DrGzCikQ4dl1HEcOLPDV7SkIqTl9BUMKyw7gLNsK7c8KRWV9uwpzDvsOlwroSw4c/XcO/wr12wp7DtQHDgg9Rd1Raw4dFwqbCncOOYhVkNVROcMKtwpPCrcOpw67CocOzLCEuT8K5wq7DtcKBwpHCo1DDlUZHBgEQPEgOwpbDnBvCncO5wrHDjsOzworCoXAnwqbCr8O7wovDicOKbsOrwrhew5zDs1o0wqZ1wpIQezgudljCjjkCwpLCsV/Dg8KewokrHj4secOEwrbDhgLCpyTCrsOZbHfDnkoxVsOsw4kLQcO6O8Kww6dsw7rDjVLCsUYzAMOKUsKAw7XDhsOYwqjDlinDk8O2OFtYw6jDmHwHw7bCuHBESnMAM0HCosO5wpY/w6kUwpTCmsKcAirCucK6PcKPw5HDuTvCsBfCpMKnwr3DgFJQRcKvwrLClsK1BRPDksK6bUDDs8OhwrlaKgLCsMO5JsO2wobChxjCj3RJW3LDrMOMwpUNRcKCMjXChMOVwo7DjGjDkMK3aXDDpUTDtMKfwpfDpWN6P8OuXzLCvnfDo8OFH3zCszPDlwbCn27Cjz81w70pecOzw75AwqwEPMKbwrLCgWPDtMKVwpw7EALCg8KlS2/ClMOVeXDCowN9wrhfwrwcw4kvHsKIw5hbwqYkw7cwwqbCsz0VRsKqJsOIw4vDjEE1w6ZQNjIjGTjCh1fDt3LDusKKCMOPeHcgw7rDmzhgX1TCpSfDjsOSwp1JJMKLwoQAwqwzW3rDhHLChXnCq8OjWkrDgFESw57Cgmszci/CqsKuDjrDgsOqwo3Cg8OWwprDrcORSSjCuSpjw4XCjsKrwrrDvWBxasOGWGFOwrVVd0/Do8KrwoN3w4nCi8KqwrM3woPCq35QRcKfwr0iw7FAXRXClMKxwqldwqzCtcOIwoNQOiLCvcOHTU9FwrfDt8KGwojCmsOBVcK/UXVFRMO3w6BgQmDCrMOOwokNKUDCihnDp3Jew7bCncKKDMOJwoo+aMKAw4FWb8OBNQPDmH3DgGnDvhB2wpFzeMKmw6IhORVyR8ODJXnCosKow5rDpcO3esK0CcOnw5YZeTjCoMKOwq9hwr86w7h4QMO5wrl+YsKbUjIZesOCw4/CoMKFwrAAEsKZwqcAVcK3JzTCg8O0wptVVwfDvyoHVMKSw4ZJMT/DusK3wqDDhcO+cMOQw74fw5chw4DDrSLClsKEwp47IsKQw7zCl8KuQxITEcKWMnfDtAnCpcKVMi7DicKtwqnDn8KxKsK/w4JhwpXDisO8w6TCgRvDusKuwp/Cjx3CuXEBJ20QwpLDn8OXw4vDtMK8wrfChMKDDcKfJMKnwpA/w4YNaCfDssOvw5IBwqYyw7HDjMOvwqtjbMOow4vCnVnDs0cDU8OVdXk6wqLClCAMw5k1wo3CrnLCj8KHwpB8woTCoWl3wpLCmMKhVgVxw6DCl8OcMcO3w5EGQTHDiipWaMO0wpp+wo9yAMOcSRTDhHDDucKYG8K1FsKxw4JmwpDCnTLDrMKRwqDCh8KZDsK5cxF0w7zDosOhBcK8PcK8ODDCoBMcw47Dm8O1OhIKPxxBw6LCmE8twrI+FEzDgUTDuC3Ck1fDg8KUGnHDtMONw4JxwptIBm3DpMKEwrPDqiHClsOqTMOATTHDncKAw6QsY8O1RsKxwpJXwrkMesKLw4sKIjPDhsOrSHnDnybDpmnDhVDDlcK4VGcOwpjCq8O8wpPCp8K1D8KFY8O9bVzDjsKpwpB4w5vCiA7ChS7Dn3JbXcOewo1dwpVxwqVQKMKhajZ3DsK7BsOmwq/CgsOLw7bCgsOJw7/DuCI6w7/CiGvDij8Twp3Dm8KoRTfDrXLDjcKrPCogw6wZJhhqCS9XJcK1dMK1wogZHsOQw5nDksKewoQIYMOUwrjChWbCqAbCgTbCq0gDBE4SwrLCkcOVwpfDkXcUwq7Cj01jwrPDlx0zBBoUY1vClU8zw5nDlUzChWsKwonCmFIGwrXDlm8Kw5cHaAzDtsOaaUnCmgoqw45ow5ZmMAZiV8O6w45Sd2xeWcOXw5xDw6HDmsK+QsOjesK2PhbCrjIpAcO7RMOXeG5IQcKawpUCVcOOwqPCqcO1wprDo3rCo0nDpsK9BcKewrR3woXDqxfCsMK/KsK3woJAw7nDrlrDkXpeWMKZS8KgSsKrwrjCjSHCn1llHm9+B8O2w7XCncK6XcOGwpV0w4TDlsOzw4HCmEZAw4VmUzHCtEFWw6rDunHCo30Hw7ZRw4nDgCZkwqkrw4sDC0Ynw4gswoIWwqwAw4vDl1XDicOYacKbwr9Uw6HDqlV9X8KVX8KGw5wfX8OFw77Dv0LCjjkew5RNRSJ9wpBCw5Fmwol5ZcK9wqnDsMKAw5EaNTgrGMO0ADl0H3NhJAPCkjJXwrYAV8KJA31yw6nDijjCp8KBw5fChMKWw74xw4gxw7ttw74uSU8gwpQ4MHdeZRx+w6p2aitRJ8K4VWjDlMOTwpnCpsO1wrjDlzRKw4l9w7oqV1RiwrpfUxvCjGcowodhwpNye8Ocw5fCksKYa8KTT8KiGBbCv8OKNcOaw6rDrcO9TgRCQMKswpkxPBFMw6bCi8O8fsOiw4XDiioGRsO2w7hRw4vDrwVnw6Bkw4bDqMOpL8KZw6wcEMO8wp3DqcOrwrPDnsKIWcK7wrLDghNtTx7Cr8KFw6MUGMKEw6gPbsKYEWHDt1IGwqPDkSvCvsO+w6Qjw4Qvw5LDuk9NYsO8wpbDhMOIw7NtMsKIw75LOVw2JVDDgcOybj8YwqNhR8Opw57Cp2IWX8OOwqXDncK5w5B4JXzDiGEZDzN3w7TDk3XDosKvEVQDVcKEwpRPwpzDk2zDgsK2wqd4wrvCvcK2wpHDv8Oew7DCu3VdwqTCvsObwqfDlcOhw4cywp3Dq8Kww5PDs03DkMOdw4QEwpg4cwvDskvCmXJFwonDosOZSsORKzbCjMK7ZBTDncOGTl7DgsOrV2VdDcKHw6AGwrdwDA9VEMK8w5DDl2XDuMKST8KLf3xew7zDvXpLfRnCuV5Qw49Ywrxcwo/Dv8OyeUFRwoxtGBTCtWbDhcK/XT/DusOhw7rDnG/CtB4hJH7DsGrCpDzCssKjYcOUwqHCh8Ozw6cdwrJ3w7cqElwnCcOXZ2/Ckm3Dg8OXQAHCuGjCmGHDssKqdGDDmcK3SsKjHsOnwpdrwpxzw7vDtcKBUsK9HsKAGlwILUZVKWkKwofDtjrDqcOZQMOpw4zDm8OGw47DlcKpw7xFwql6VsOzw4tvw6DDninCpcOgblVBw47Cmj7CrMO8wpDCmsKAJGfCtsKqOAHDm33DmhfCqsO0w5ZSw4hHasKjwpDCkWPDjsK+WkoBRgbDiFDDvsKgVMOHw7U9w4gMJysUck9eEcKGwp3Ct8KVRsOQwpt8OEdUCsK9wrF0wqPCs8KDccOQwqrDszvCpcOxw69iCgJgLnM9w5XDpwDCs2ciccKUworCjB/DlhvCnUrCrEzDsMOFw48XYsO4fGPChsOPN2rDuMO8woYbPl/DicOhw7MlPS8vwpEnEMKFCQR7ecK+wqbDp8OvR39Ewp5ICAZww6zDtnzDvcONEcO4w7QwC8KCLsKKLywgBsOXVBlcwrfCtMO3wooww67ChW1yw57Dk8KhI3vCrkTDtVvCuMOZwq96XcK7esO0wpzCssOXw7nDuXhID8OawoplOsK5w55JdsK2B8OOXDnCqSbDiFpadMOewobCnxfCv8ONKcO6w61MwqTCrsO7w4s+Ri3CqQ3CrVVHa2zDj1nCtzPDiQ3CmgB6wqkhwpTCqRjDpSBqwq8pwodcUsOuwp3CtMOVw5gtZ05bw4RjwrouwrVKw4zDonFdw5EZw4bDrBvCvwLDoHfDksOGwqM0wr5VwpR4w4PCrcK2ORDDo8KZUytncmnDusOiw5rDtcKAwr7DmMOsw7XCm8O0WMO/w7TDkxfCpCUjw4ZWYcKBVUPDpxppw6DChMOgw5lmwpbDqyXCtcKfKkTCssKSwps0Gz/Dp8O1O8OpwoN/bsOFwq3CnC5dw5vDjhrCnnLDucK6TsO4FAQScMOjUMOmw6YvwpUtwqVVO8KQwrhiScOBHXU3I8KVUwrCoSPCpRPDlcKawrLDhDJ7wp8tMC/Dm8K1w54AwohGwrPDlAHDosO1XlHDrcKpw6zCumDCv8O1woVpw7pawrY8VxTCn28lw4XDm8OswpnCo2hfwqJ4fGTChyMZYcOALmHDgMKUwo17A1Viwp4/LcO9w53DmcKzSTtjw5HDqcK2B8KSw6EZwpcdfC/CrcOHw4gudMOBbsKbODvCtiEswrhuWsK+YcKTw5wlwqDDgBXDnklTwo87w4jDkx4fw5JWU8KTUMOCZ0bDrsKJacKPSMOVwpEaNw7CjsOZw47Dq8O+Xy1/J8K9PhnDg8OAKxrCsj3DixnDlsKICCwwwpnDpsKFwrsywozDscOjwpnDvkvDrT9SDsKjGMOYGx3DtcOPw5HDhl7Ck0jDgcKWwqU8wrBTwrHCnBLDk37Cv8O/w7TClsObJ2PDmMKnw5RGwqrDmGFXDcO+wrRvIU0xw6Bhw5zDiMO1P8K1w7/DlCXCisKnw4cdFAouOBR7w4LDrinDmsOkWsOKwoolZMKdOAc1WsKtRhTDlF7Dt8OAw7jCgnRHVMO9w5kGw5k8w6Qjew3DjcKJJDcHwqAFw5fCmMK9w60wI3knw73Dn8KPw5LDsFzChMOsSz3CiUXCnsOJwq3CjXDClMKlacKMDcOxwrQNwoLDtcOJal7CpcKpL0hXTMOOwrjCiEjCgsK1Smg8KMKnw73DiMKdw6DDhFrDpcO8wqlkw6DDs19qw78JwoI/w6lyUGzCoMKyw4fCocOhKGLDrXYFU8KGwqgkwqdqw40Sw6/Dt1/DssKwbRwMwrzDjMK7wrTDjcOgw6cNw61vOmpmw4sTw44HwpnDmVzDtsO/w5fCr8KVw4V/wrQnX8Oqw7nCgsK0wrt0AcO/wo9lw7E/XcO+FsO9w6QJI8OewoFCwoTCtCHCpUrDnhrDrMKOw452woXDrFFPwojCisKHw7IXIDbCuEXCi8OQcRPDp3vCqxrCpxE/S8ObcMKDwpAEVcOBNsO+B8OUwpZfw4fDqMOMccOXTMKvw57CocOMIsKowpHDgMORwr0IQx3CusKCwofClANpRsOcw5Idw54Ha8KffVNsw4nCu2PDtsKgw6HCucKwa8OzEMK9EMOww7PDsMO9RMKnwowww4LCl8OAA8Krw5LCoMOYw6YRXFgSw4nCuGo5DsKkU2wOw6g5THfDisKEw63ChjdrXTXCrGkbw5o+wqx1HcKOElN9W8Ouw45+DRFuwr5bC1/CkkLCvT1Uw7VSVRgvwqgOwohqw5HDiWkLZcK2wqjDq8OgwpvCtcKuDsKEbzQIwq/DrsK+KMK+wq1FX8OXesOnw5fDjkvCucKgwo3DtxXCtWPDlMKsw5Jiw4jCgcO4w5xPw5rCo8KVwrHDpFg/w7g1a8Oow4nClcO6wrjDlnU4wrnCu8O7fcOcAj/DgcO4wr05wrrCvMKCwoBPw5gTCmDDuMOcJkEkAsKiBAljw68owoPDi8OzfXAww4fDlm0KHnRhesKdGsKxwpjDp2U5w6Q7X8Orw59TBiLCiQ12wqR9woNlw6HDmAobwpnCgMOoKDcawrZZRcOkeR19w7/CkXFPw4d3B8Kvw6kSS8K/MVvDksOkwps2wrYOw4EqW3VAwrfChCcrPDLCgsO7EMOKw6XDscOhw6DCv8KHwpISXxXDn1PDhMO4QnHCm8Orw6djwpzDhsK5w6/DsEPChMOpYMOCwpBLfsOCSkfCjnVbwqHCpMKHwrXCnjUwwr9bw4sww7oww6PCt8KPw6k4w48Uw5/CtXTDm1bClCLChzhFDiQAWcOnZMOawqRSw4VKEcOXQMOPw63CvMOHwrXDhAcNw4LCg8K7w6Jbwr/ClsOxF8OKblLCgz0lHMKmw4ofw7fCvcObw6hgwopSw4fCiMOowrXDkzprwrFKfsKMw6FVA8O/wrvCtcKuw4PDj8Ouw77Du8OTw7HCsAxJS8O2BSpYKsOgCRDDt0QMwrVWIlEpPwDDg1p4wp/CjsKdwo3DkMO7w4TClcKYTcKYEyvCnsKrc8OYIcKlw5DDsBjDizrDhsKbw6DCmyfDmAcNfMK5wq8Jw77CkMKjCAY+w50ewq/CvyzCp1pCDnItPsKnUzDDscOWwrRrcT4KU3rDrcOWwq3DixvDqcODw6HCocKGRMKZWTjCow0gCXfDgsOGwqg3UwrCr8Kgwq3DnVJ9HG/Crlp/wrjDvMOnKcK0w6fCgsONaFlQH2/CkcKzw4PDtMKrw57DocOALcOsT8Omw67DlFzDvsK2w7rCuMO4GULCscOLw6XDmMOzw4/DqsOyN27Clwh5fsO+woXCo3Mewr/DnlXCvcOEZMOlw4bDoX/CgMKLw5/DvhfDoAjCnTY=]]></gravitDesigner:gravitGraphicSource></svg>

<svg xmlns="http://www.w3.org/2000/svg" xmlns:xlink="http://www.w3.org/1999/xlink" style="isolation:isolate" width="256" height="256"><switch><g><path d="M78.924 15.5c-35.296 0-39.094 3.625-38.921 38.994v146.012c-.173 35.369 3.625 38.994 38.921 38.994h98.157c35.297 0 38.922-3.625 38.922-38.994V54.494c0-35.369-3.625-38.994-38.922-38.994H78.924z" fill="none" vector-effect="non-scaling-stroke" stroke-width="4" stroke="#000" opacity=".2"/><defs><filter id="a" x="-200%" y="-200%" width="400%" height="400%" filterUnits="objectBoundingBox" color-interpolation-filters="sRGB"><feGaussianBlur xmlns="http://www.w3.org/2000/svg" stdDeviation="2.12"/></filter></defs><path d="M78.924 16.5c-35.296 0-39.094 3.625-38.921 38.994v146.012c-.173 35.369 3.625 38.994 38.921 38.994h98.157c35.297 0 38.003-3.637 38.922-38.994V55.494c0-35.369-3.625-38.994-38.922-38.994H78.924z" opacity=".1" filter="url(#a)"/><defs><filter id="b" x="-200%" y="-200%" width="400%" height="400%" filterUnits="objectBoundingBox" color-interpolation-filters="sRGB"><feGaussianBlur xmlns="http://www.w3.org/2000/svg" stdDeviation="8.48"/></filter></defs><g opacity=".3" filter="url(#b)"><linearGradient id="c" x1="-.068" y1=".031" x2=".954" y2="1.053" gradientTransform="matrix(176.0054 0 0 224 39.997 16.5)" gradientUnits="userSpaceOnUse"><stop offset="0%" stop-opacity=".588"/><stop offset="88%" stop-opacity="0"/><stop offset="100%"/></linearGradient><path d="M78.924 16.5c-35.296 0-39.094 3.625-38.921 38.994v146.012c-.173 35.369 3.625 38.994 38.921 38.994h98.157c35.297 0 38.922-3.625 38.922-38.994V55.494c0-35.369-3.625-38.994-38.922-38.994H78.924z" fill="url(#c)"/></g><path d="M78.924 15.5c-35.296 0-39.094 3.625-38.921 38.994v146.012c-.173 35.369 3.625 38.994 38.921 38.994h98.157c35.297 0 38.922-3.625 38.922-38.994V54.494c0-35.369-3.625-38.994-38.922-38.994H78.924z" fill="#4D4D4D"/><path d="M78.925 15.5c-35.297 0-39.095 3.626-38.922 38.994v2C39.83 21.126 43.628 17.5 78.925 17.5h98.156c35.297 0 38.922 3.626 38.922 38.994v-2c0-35.368-3.625-38.994-38.922-38.994H78.925z" fill="#FFF" opacity=".6"/><path d="M128.003 15.5v224h49.078c35.297 0 38.003-3.636 38.922-38.993V54.493c0-35.368-3.625-38.993-38.922-38.993h-49.078z" fill="#FFF" opacity=".1"/><path d="M156.003 239.5l60-60v22.484c-.053 33.996-3.803 37.516-38.174 37.516h-21.826z" fill="#FFF" opacity=".2"/><path d="M128 74.007c-29.835 0-54 24.192-54 53.986 0 29.822 24.165 54 54 54s54-24.192 54-54c0-29.794-24.165-53.986-54-53.986zm0 40.5c6.75 0 13.5 6.75 13.5 13.5 0 8.134-6.75 13.5-13.5 13.5s-13.5-6.75-13.5-13.5 6.75-13.5 13.5-13.5z" fill="#E6E6E6"/></g><foreignObject requiredExtensions="http://ns.gravit.io/"> </foreignObject></switch> </svg>
